X:1
T:Ung doulx regard
T:Claude Gervaise
T:Source : Livre X de 28 chansona nouvelles à 4 parties---Paris---P.Attaingnant---1541. Editor : André Vierendeels (21/05/18) Notes : Original clefs : C1, C3, C4, F4 Original note values have been halved Editorial accidentals above the staff
T:Ung doulx regard
T:©
T:©
T:©
C:Claude Gervaise
Z:©
%%score [ 1 [ 2 3 ] 4 ]
L:1/8
Q:1/4=120
M:2/2
K:F
V:1 treble nm="Alto" snm="A"
V:2 treble-8 nm="Tenor 1" snm="T 1"
V:3 treble-8 nm="Tenor 2" snm="T 2"
V:4 bass nm="Bass" snm="B"
V:1
 F8 | B4 G4 | A4 z2 F2 | F2 F2 EFGE | FG A4 G2 | A4 z2 A2 | A2 A2 F2 ED | E2 C2 F3 G | AF G3 F F2 | %9
w: Ung|doulx re-|gard, ung|par- ler a- * * *|* * * mou-|reux, puis|ung bay- ser _ _|_ re- ceu à|la play- san- * *|
w: Sont|les troys|biens qui|font l'a- mant _ _ _|_ _ _ heu-|reux, et|par- ve- nir au _|but de iou- ys-|san- * * * *|
 F2 E2 F4- | F4 z4 :| B8 | G2 G2 A4 | z2 A2 A2 A2 | G2 E2 F4 | E4 z2 c2 | A2 F2 G2 A2 | G2 A4 GF | %18
w: * * ce,|_|O|quel play- sir|ma da- m'et|sou- ve- nan-|ce, ma|da- m'et sou- ve-|nan- * * *|
w: * * ce,|_||||||||
 E4 z2 E2 | F2 F2 EDEF | G4 z2 G2 | A2 c2 B3 A | G2 F2 E2 DC | D4 C4- | C8- | C4 z4 |: F8 | B4 G4 | %28
w: ce, si|l'ung des troys _ _ _|_ me|don- nez seul- *||le- ment,|_||car|ung seul|
w: ||||||||||
 A4 z2 F2 | F2 F2 EFGE | FG A4 G2 | A4 z2 A2 | A2 A2 F2 ED | E2 C2 F3 G | AF G3 F F2- | %35
w: bien, re-|ceu en suf- * * *|* * fi- san-|ce, vault|mieulx que troys hors _|_ de con- *|* * ten- * *|
w: |||||||
 F2 E2 !fermata!F4 :| %36
w: * te- ment.|
w: |
V:2
 c8 | f4 e4 | c8 | z2 c2 c2 c2 | A4 B4 | c3 B AG F2- | F2 A2 AG AB | c2 c2 c2 c2 | f2 e2 d4 | %9
w: Ung|doulx re-|gard,|un par- ler|a- mou-|reux _ _ _ _|_ puis ung _ bay- *|ser re- ceu à|la play- san-|
w: Sont|les troys|biens|qui font l'a-|mant heu-|reux, _ _ _ _|_ et par- * ve- *|nir au but de|iou- ys- san-|
 c4 A4- | A4 z4 :| z4 d4- | d4 f2 f2 | c2 f2 e2 c2 | e2 e2 d2 cB | c4 z2 c2 | c3 d ef e2- | %17
w: * ce,|_|O|_ quel play-|sir ma da- m'et|sou- ve- nan- * *|ce, ma|da- m'et sou- * ve-|
w: * ce,|_|||||||
 ed c4 B2 | c4 z2 E2 | A2 A2 G2 c2 | d2 e2 f2 e2 | c4 d4- | d4 z2 G2 | B2 B2 A2 G2 | A3 G/F/ G4 | %25
w: * * nan- *|ce, si|l'ung des troys me|don- nez seul- le-|* ment,|_ me|don- nez seul- *|* * * le-|
w: ||||||||
 F4 z4 |: c8 | f4 e4 | c8 | z2 c2 c2 c2 | A4 B4 | c3 B AG F2- | F2 A2 AGAB | c2 c2 c2 c2 | %34
w: ment,|car|ung seul|bien,|re- ceu en|suf- fi-|san- * * * ce,|_ vaulx mieulx _ _ _|_ que troys hors|
w: |||||||||
 f2 e2 d4 | c4 !fermata!A4 :| %36
w: de con- ten-|te- ment.|
w: ||
V:3
 A8 | d4 c4 | A2 F2 F3 G | A2 A2 G4 | z2 F2 F2 D2 | E2 C2 c3 B | AGFE F2 F2 | G2 A3 GAB | %8
w: Ung|doulx re-|gard, und doulx _|_ par- ler,|puis ung bay-|ser re- ceu _|_ _ _ _ _ à|la play- san- * *|
w: Sont|les troys|biens qui font l'a-|mant heu- reux|et par- ve-|nir au but de|iou- * * * * ys-|san- * * * *|
 c3 B A2 GF | G4 F4- | F4 z4 :| G8 | B2 B2 F3 G | AGAB c4 | z2 G2 A4- | A2 A2 G2 E2 | F4 C2 c2 | %17
w: |* ce,||O|quel play- sir, _|_ _ _ _ _|ma da-|* m'et sou- ve-|nan- ce, sou-|
w: ||ce.|||||||
 cBAG F4 | G2 G4 E2 | C2 c2 c2 A2 | B2 c2 B4 | A4 z2 B2 | B2 B2 G4 | G4 E3 D | E2 F4 E2 | F4 z4 |: %26
w: ve- * * * nan-|ce, si l'ung|des troys me don-|nez seul- le-|ment, me|don- nez seul-|le- * *||ment,|
w: |||||||||
 A8 | d4 c4 | A2 F2 F3 G | A2 A2 G2 G2 | z2 F2 F2 D2 | E2 C2 c3 B | AGFE F2 F2 | G2 A2 AGAB | %34
w: car|ung seul|bien, re- ceu en|suf- fi- san- ce,|vaulx mieulx que|troys hors de _|_ _ _ _ _ con-|ten- * te- * * *|
w: ||||||||
 c3 B A2 GF | G4 !fermata!F4 :| %36
w: |* ment.|
w: ||
V:4
 F,8 | B,,4 C,4 | F,,4 z2 F,,2 | F,,G,,A,,B,, C,2 C,2 | D,4 B,,4 | A,,8 | z2 D,2 D,2 D,2 | %7
w: Ung|doulx re-|gard, und|doulx _ _ _ par- ler|a- mou-|reux,|puis ung bai-|
w: Sont|les troys|biens qui|font _ _ _ _ l'a-|mant heu-|reux,|et par- ve-|
 C,B,,A,,G,, F,,2 F,2 | F,2 C,2 D,2 F,2 | C,4 F,,4- | F,,4 z4 :| G,,8 | G,,2 G,,2 D,4 | %13
w: ser _ _ _ _ à|la play- san- *|* ce,|_|O|quel play- sir,|
w: nir _ _ _ _ au|but de iou- ys-|san- ce,|_|||
 z2 D,2 C,2 A,,2 | C,2 C,2 F,,3 G,, | A,,G,,A,,B,, C,4 | z2 F,2 E,2 C,2 | E,2 F,2 D,4 | C,4 C,4 | %19
w: ma da- m'et|sou- ve- nan- *|* * * * ce,|ma da- m'et|sou- ve- nan-|ce, si|
w: ||||||
 A,,2 F,,2 C,4 | z2 C,2 D,2 E,2 | F,2 F,2 B,,4- | B,,4 C,4 | z2 G,,2 A,,2 C,2 | A,,2 F,,2 C,4 | %25
w: l'ung des troys|me don- nez|seul- le- *|* ment,|me don- nez|seul- * le-|
w: ||||||
 F,,4 z4 |: F,8 | B,,4 C,4 | F,,4 z2 F,,2 | F,,G,,A,,B,, C,2 C,2 | D,2 D,2 B,,4 | A,,8 | %32
w: ment,|car|ung seul|bien, re-|ceu _ _ _ _ en|suf- fi- san-|ce,|
w: |||||||
 z2 D,2 D,2 D,2 | C,B,,A,,G,, F,,2 F,2 | F,2 C,2 D,2 F,2 | C,4 !fermata!F,,4 :| %36
w: vaulx mieulx que|troys _ _ _ _ hors|de con- ten- *|te- ment.|
w: ||||

